shader_type canvas_item;

uniform sampler2D SCREEN_TEXTURE: hint_screen_texture;

void vertex() {
	// Called for every vertex the material is visible on.
}

void fragment() {
	// Called for every pixel the material is visible on.
	vec4 c = texture(SCREEN_TEXTURE, SCREEN_UV);
	COLOR = vec4(1.0) - c;
	COLOR.a = 1.0;
}

//void light() {
//	// Called for every pixel for every light affecting the CanvasItem.
//	// Uncomment to replace the default light processing function with this one.
//}
